X:243
T: Die Nonne (18f), S.81
N: T0132
O: Luxemburg
S: Singendes Volk, Esch-Alzette 1937 posth.]
N: Verfasser: Lebrecht Dreves, 1836
R: Liebeslieder]
M: 4/4
L: 1/8
K: G
D2 | G3DB,2D2 | G2B2B2
d2 | A3GF2G2 | A2DDD2
GA | B2B2B2B2 | B2d2d2
cB | A2c2c2c2 | c2e2d2
dc | B2B2A2A2 | B4z2

@@@ Tune index: 8297
